X:90
T: Comb Your Hair & Curl It
M:9/8
L:1/8
K:G
|:"Em"B2E E2F G2A|"D"Bcd e2c d3|"C"B2E E2F G2A|"Bm"~B3 "D"ABG "Em"FED:|!
|:"Em"g2e e2d efg|"D"f2d d2c def|"C"g2ed e2d "Am"e2c|"Bm"dcB "D"AGF "Em"G2E:|

